X: 37216
T: Sissi's
R: jig
M: 6/8
K: Dmixolydian
|:~D3 DEF|ADD FAB|Bcc dcA|GED CDE|
DED DEF|ADD FAB|Bcc dcA|1 GED D2 A:|2 GED DFA||
|:dAF Adf|afe dBA|c2 e gfe|fed ed^c|
dAF Adf|afe dBA|c2 e gfe|fd^c d2 A:|

